images/icons/logos_whatsapp.svg

<svg width="26" height="26" viewBox="0 0 26 26" fill="none" xmlns="http://www.w3.org/2000/svg">
<g clip-path="url(#clip0)">
<path d="M6.87211 22.2677L7.29715 22.4778C9.0684 23.5282 11.052 24.0183 13.0357 24.0183C19.2702 24.0183 24.371 18.9765 24.371 12.8143C24.371 9.87333 23.1666 7.00229 21.0413 4.90151C18.9159 2.80073 16.082 1.61035 13.0357 1.61035C6.80132 1.61035 1.70035 6.65214 1.77124 12.8844C1.77124 14.9851 2.40885 17.0159 3.4715 18.7664L3.75486 19.1867L2.62142 23.3181L6.87211 22.2677Z" fill="#00E676"/>
<path d="M22.2455 3.78134C19.8368 1.33052 16.5071 0 13.1064 0C5.88027 0 0.0708906 5.81205 0.14168 12.8846C0.14168 15.1254 0.779289 17.2962 1.84204 19.2569L0 25.9093L6.87202 24.1586C8.78485 25.2091 10.9101 25.6992 13.0356 25.6992C20.191 25.6992 26.0004 19.8871 26.0004 12.8147C26.0004 9.38339 24.6543 6.1622 22.2456 3.78134H22.2455ZM13.1064 23.5285C11.1936 23.5285 9.28078 23.0384 7.65131 22.058L7.22627 21.8479L3.11726 22.8983L4.17991 18.9069L3.89655 18.4867C0.779289 13.515 2.26708 6.93246 7.36795 3.85131C12.4688 0.770263 19.0575 2.24082 22.1747 7.28261C25.2919 12.3244 23.8041 18.8368 18.7033 21.9179C17.0738 22.9682 15.0902 23.5284 13.1064 23.5284V23.5285ZM19.3409 15.7558L18.5616 15.4057C18.5616 15.4057 17.4281 14.9155 16.7196 14.5653C16.6487 14.5653 16.5779 14.4953 16.5071 14.4953C16.2945 14.4953 16.1528 14.5653 16.0111 14.6354C16.0111 14.6354 15.9403 14.7054 14.9485 15.8258C14.8776 15.9658 14.7359 16.0359 14.5942 16.0359H14.5233C14.4525 16.0359 14.3109 15.9658 14.24 15.8958L13.8857 15.7558C13.1064 15.4057 12.398 14.9854 11.8312 14.4253C11.6895 14.2852 11.477 14.1452 11.3353 14.0052C10.8394 13.515 10.3434 12.9547 9.98928 12.3245L9.91839 12.1845C9.8476 12.1144 9.8476 12.0444 9.77671 11.9044C9.77671 11.7643 9.77671 11.6243 9.8476 11.5542C9.8476 11.5542 10.131 11.2041 10.3434 10.9941C10.4852 10.8539 10.556 10.6439 10.6977 10.5039C10.8394 10.2938 10.9102 10.0137 10.8394 9.80361C10.7686 9.45346 9.91839 7.56279 9.70592 7.14267C9.56414 6.93256 9.42256 6.8626 9.20999 6.79253H8.4307C8.28892 6.79253 8.14734 6.8626 8.00556 6.8626L7.93467 6.93256C7.79299 7.00263 7.65131 7.14267 7.50963 7.21264C7.36795 7.35278 7.29706 7.49272 7.15538 7.63286C6.65945 8.26308 6.37609 9.03334 6.37609 9.80361C6.37609 10.3638 6.51777 10.924 6.73034 11.4142L6.80123 11.6243C7.43884 12.9547 8.28892 14.1452 9.42256 15.1955L9.70592 15.4756C9.91839 15.6857 10.131 15.8258 10.2726 16.0358C11.7604 17.2963 13.4607 18.2066 15.3735 18.6968C15.5861 18.7668 15.8694 18.7668 16.082 18.8368H16.7904C17.1447 18.8368 17.5697 18.6968 17.8532 18.5568C18.0656 18.4167 18.2073 18.4167 18.349 18.2767L18.4908 18.1366C18.6325 17.9965 18.7741 17.9265 18.9158 17.7865C19.0575 17.6465 19.1992 17.5064 19.2701 17.3663C19.4117 17.0862 19.4825 16.7361 19.5534 16.386V15.8958C19.5534 15.8958 19.4825 15.8258 19.3409 15.7558Z" fill="white"/>
</g>
<defs>
<clipPath id="clip0">
<rect width="26" height="26" fill="white"/>
</clipPath>
</defs>
</svg>

<svg width="26" height="26" fill="none" xmlns="http://www.w3.org/2000/svg"><g clip-path="url(#clip0)"><path d="M6.872 22.268l.425.21c1.771 1.05 3.755 1.54 5.739 1.54 6.234 0 11.335-5.041 11.335-11.204 0-2.94-1.204-5.812-3.33-7.912a11.32 11.32 0 00-8.005-3.292C6.8 1.61 1.7 6.652 1.77 12.884c0 2.101.638 4.132 1.7 5.882l.284.42-1.134 4.132 4.251-1.05z" fill="#00E676"/><path d="M22.245 3.781C19.837 1.331 16.508 0 13.107 0 5.88 0 .071 5.812.142 12.885c0 2.24.637 4.411 1.7 6.372L0 25.909l6.872-1.75c1.913 1.05 4.038 1.54 6.164 1.54C20.19 25.7 26 19.887 26 12.815c0-3.432-1.346-6.653-3.754-9.034zM13.107 23.53c-1.912 0-3.825-.49-5.455-1.471l-.425-.21-4.109 1.05 1.063-3.991-.283-.42C.779 13.515 2.267 6.932 7.368 3.85c5.1-3.08 11.69-1.61 14.807 3.432 3.117 5.041 1.63 11.554-3.472 14.635-1.63 1.05-3.613 1.61-5.597 1.61zm6.235-7.773l-.78-.35s-1.133-.49-1.841-.84c-.071 0-.142-.07-.213-.07-.213 0-.354.07-.496.14 0 0-.07.07-1.063 1.19a.39.39 0 01-.354.21h-.07a.54.54 0 01-.284-.14l-.354-.14c-.78-.35-1.488-.77-2.055-1.33-.141-.14-.354-.28-.496-.42-.496-.491-.992-1.051-1.346-1.681l-.07-.14c-.071-.07-.071-.14-.142-.28 0-.14 0-.28.07-.35 0 0 .284-.35.496-.56.142-.141.213-.351.355-.491.141-.21.212-.49.141-.7-.07-.35-.92-2.241-1.133-2.661-.142-.21-.283-.28-.496-.35h-.78c-.141 0-.283.07-.424.07l-.071.07c-.142.07-.284.21-.425.28-.142.14-.213.28-.355.42-.496.63-.779 1.4-.779 2.17 0 .56.142 1.121.354 1.611l.071.21a11.67 11.67 0 002.622 3.571l.283.28c.212.21.425.35.567.56 1.487 1.261 3.188 2.172 5.1 2.662.213.07.496.07.709.14h.708c.355 0 .78-.14 1.063-.28.213-.14.354-.14.496-.28l.142-.14c.142-.14.283-.21.425-.35.142-.14.283-.28.354-.42.142-.28.213-.63.283-.981v-.49s-.07-.07-.212-.14z" fill="#fff"/></g><defs><clipPath id="clip0"><path fill="#fff" d="M0 0h26v26H0z"/></clipPath></defs></svg>
